X: 32839
T: Port Debby
R: jig
M: 6/8
K: Dmajor
FAd fed|cBc ecA|FAd fed|cde g3|
FAd fed|cBc ecA|dAF GBd|Ace d3:|
faf ggg|faf eee|dfa afa|bge efg|
faf g2g|(3fga f eee|dAF GBd|Ace d3:|

